X: 50
T:March in the Occasional Oratorio,(Melody). BC.48a
M:C|
L:1/4
Q:90
C:G.F.Handel,1746
S:Benjamin Cooke MS.circa 1770, F.Kidson Coll.
R:March
O:England
A:Uncertain, probably northern
N:G.F.Handel(1685-1759) wrote the Occasional Oratorio in 1746, not long
N:after the Messiah.
Z:vmp.John Bagnall
K:D
A | d/e/f/g/f e | d2 A2 | f/g/a/b/ a g | "tr"f2 e2 |!
 g/f/g/a/ g f | e2 d2 | g a/g/ f/a/g/f/ | "tr" e3 a |!
 e e/e/ e a | A A/A/ "tr"A f/e/ | d c/B/ "tr"B>A | A3 |!
|A | e e/d/ e f | g2 "tr" e2 | f g/f/ e d | a2 "tr"f2 |!
  A A/A/ "tr"A d | A A/A/ "tr"A f | d d/d/ "tr" d a | f f/f/ f d'|!
 b a/g/ a g/f/ | g2 b2 | a g/f/ g f/e/ | f2 a2 |!
 g f/e/ f e/d/ | e A e f | g f/e/ "tr" e2 | d d/d/ d a/f/ |!
 d d/d/ d f/d/ | e e/e/ e f/g/ | f/e/d/e/ "tr"e>d | d3 |]
